icons/lines/nebulas--nas-.svg

<svg xmlns="http://www.w3.org/2000/svg" width="24" height="24" viewBox="0 0 24 24" fill="none" stroke="currentColor" stroke-width="2" stroke-linecap="round" stroke-linejoin="round" >
  <path d="M12 5.20001L9.5 13.2L14.5 10.8L12 5.20001Z" stroke-miterlimit="10"/>
  <path d="M14.1 11L18 12.2L13.5 14.8L13.1 14.6L6 12.2L10 10.2" stroke-miterlimit="10"/>
  <path d="M13 15.2L12 18.2L9.5 13.6" stroke-miterlimit="10"/>
  <path d="M12 22C17.5228 22 22 17.5228 22 12C22 6.47715 17.5228 2 12 2C6.47715 2 2 6.47715 2 12C2 17.5228 6.47715 22 12 22Z" stroke-miterlimit="10"/>
  </svg>

<svg xmlns="http://www.w3.org/2000/svg" width="24" height="24" viewBox="0 0 24 24" fill="none" stroke="currentColor" stroke-width="2" stroke-linecap="round" stroke-linejoin="round">
  <path d="m12 5.2-2.5 8 5-2.4z" />
  <path d="m13 15.2-1 3-2.5-4.6" />
  <path d="m14.1 11 3.9 1.2-4.5 2.6-.4-.2L6 12.2l4-2" />
  <circle cx="12" cy="12" r="10" />
</svg>
